X:1
T:Sommerlied
T:Friedrich Wilhelm Sering
T:Paul Gerhard
T:Sommerlied
T:CPDL - Creative Commons Attribution Non Commercial 3.0
C:Friedrich Wilhelm Sering
Z:Paul Gerhard
Z:CPDL - Creative Commons Attribution Non Commercial 3.0
%%score [ ( 1 2 ) ( 3 4 ) ]
L:1/8
Q:1/4=120
M:4/4
K:Bb
V:1 treble-8 nm="Tenor"
V:2 treble-8 
V:3 bass nm="Bass"
V:4 bass 
V:1
!mf!"^Mäßig bewegt" F2 | B2 A2 G2 F2 |!<(! (F2 B)c!<)! d2 d2 | (c2 A)c (!^!f2 =e)d | %4
w: Chor.~1.~Geh|aus mein Herz, und|su- * che Freud in|die- * ser lie- * ben|
w: Einz.~2.~Die|Bäu- me ste- hen|vol- * ler Laub, das|Erd- * reich de- * cket|
w: Einz.~3.~Die|Ler- che schwingt sich|in _ die Luft, das|Täub- * lein fliegt _ aus|
w: Chor.~4.~Ich|sel- ber kann und|mag _ nicht ruhn, des|gro- * ßen Got- * tes|
 (d2 c)B A2 A2 | d2 G2 c2 B2 |!>(! (A2 G2)!>)! F2 z!f!"^più" F | c3 d e2 e2 | (!^!g2 f)e d2 d2 | %9
w: Som- * mer- zeit an|dei- nes Got- tes|Ga- * ben; schau|an der schö- nen|Gär- * ten Zier, und|
w: sei- * nen Staub mit|ei- nem grü- nen|Klei- * de. Nar-|zis- sen und die|Tu- * li- pan, die|
w: sei- * ner Kluft und|macht sich in die|Wäl- * der. Die|hoch- be- gab- te|Nach- * ti- gall er-|
w: gro- * ßes Tun er-|weckt mir al- le|Sin- * nen; ich|sin- ge mit, wenn|al- * les singt, und|
 c3 d e2 e2 | (!^!g2 f)e d2!<(! Bd!<)! | f4- fdBF |!>(! c4!>)! B2 |] %13
w: sie- he, wie sie|mir _ und dir sich _|aus- * ge- schmü- cket|ha- ben.|
w: zie- hen sich viel|schö- * ner an als _|Sa- * lo- mo- nis|Sei- de.|
w: götzt und füllt mit|ih- * rem Schall Berg, _|Hü- * gel, Tal und|Fel- der.|
w: las- se, was dem|Höchs- * ten klingt, aus _|mei- * nem Her- zen|rin- nen.|
V:2
 F2 | B2 A2 G2 F2 | F3 A B2 B2 | A3 F F3 F | =E3 E F2 A2 | G2 G2 F2 D2 | (C2 =E2) F2 x F | %7
w: |||||||
 A3 B c2 c2 | (e2 d)c B2 B2 | A3 B c2 c2 | (e2 d)c B2 z2 | x2 FB dBFF | A4 B2 |] %13
w: ||||sich _ aus- ge- schmü- cket||
V:3
!mf! F,2 | B,2 A,2 G,2 F,2 |!<(! (F,2 D,)E,!<)! F,2 F,2 | F,3 A, !^!C3 B, | (B,2 A,)G, F,2 F,2 | %5
 D,2 D,2 C,2 F,2 |!>(! (F,2 C,2)!>)! F,2 z!f!"^più" F, | F,3 F, F,2 F,2 | (!^!F,2 G,)A, B,2 F,2 | %9
 F,3 F, F,2 F,2 | (!^!F,2 G,)A, B,2 z2 | z2!<(! D,F,!<)! B,F,D,D, |!>(! (E,2 F,2)!>)! D,2 |] %13
V:4
 F,2 | B,2 A,2 G,2 F,2 | (F,2 D,)C, B,,2 D,2 | F,3 F, (A,,2 B,,)B,, | C,3 C, F,2 F,2 | %5
 B,,2 B,,2 A,,2 B,,2 | C,4 [F,,F,]2 x F, | F,3 F, F,2 F,2 | B,,3 B,, B,,2 D,2 | F,3 F, F,2 F,2 | %10
 B,,3 B,, B,,2 x2 | x2 B,,D, F,F,F,F, | [F,,F,]4 B,,2 |] %13

